X:299
T:Molly and Tenbrooks
C:Doyle Lawson solo
N:From "The Bluegrass Album" Transcribed by Mike Stangeland
R:bluegrass
L:1/8
Q:1/4=239
M:4/4
K:Bb
z{=E}F z2 F2 G2 | "Bb"BA Bc B2 Bc | df zd f2 f2 | fg gg gb gf | "Eb"e2 ee [ge][ge] [g2e2] | 
fg gg gb gb | "Bb"fg fc df gf | "F7"_d=d fd cB Ac | "Bb"B2 [B2D2] B2 BG | FG DC B,C DF | 
GA Bc df gb | "F7"gf ef dB G2 | "Bb"cB G2 _AF DC | B,2 B,C DF GF | BF _AG FD CD | 
G2 GD FD CD | B,8 | 


